curriculum/images/exercise-icons/cloud-rain-sun.svg

<svg width="82" height="82" viewBox="0 0 82 82" fill="none" xmlns="http://www.w3.org/2000/svg">
<path d="M1 41C1 51.6087 5.21427 61.7828 12.7157 69.2843C20.2172 76.7857 30.3913 81 41 81C51.6087 81 61.7828 76.7857 69.2843 69.2843C76.7857 61.7828 81 51.6087 81 41C81 30.3913 76.7857 20.2172 69.2843 12.7157C61.7828 5.21427 51.6087 1 41 1C30.3913 1 20.2172 5.21427 12.7157 12.7157C5.21427 20.2172 1 30.3913 1 41Z" fill="#B8ECFF" stroke="#B8ECFF" stroke-miterlimit="10"/>
<path d="M46.0005 26.3859C46.0005 28.005 46.3194 29.6082 46.939 31.104C47.5586 32.5998 48.4667 33.959 49.6116 35.1038C50.7564 36.2487 52.1156 37.1568 53.6114 37.7764C55.1072 38.396 56.7104 38.7149 58.3295 38.7149C59.9486 38.7149 61.5518 38.396 63.0476 37.7764C64.5434 37.1568 65.9026 36.2487 67.0474 35.1038C68.1923 33.959 69.1004 32.5998 69.72 31.104C70.3396 29.6082 70.6585 28.005 70.6585 26.3859C70.6585 24.7668 70.3396 23.1636 69.72 21.6678C69.1004 20.172 68.1923 18.8128 67.0474 17.668C65.9026 16.5231 64.5434 15.615 63.0476 14.9954C61.5518 14.3758 59.9486 14.0569 58.3295 14.0569C56.7104 14.0569 55.1072 14.3758 53.6114 14.9954C52.1156 15.615 50.7564 16.5231 49.6116 17.668C48.4667 18.8128 47.5586 20.172 46.939 21.6678C46.3194 23.1636 46.0005 24.7668 46.0005 26.3859Z" fill="#FFE500"/>
<path d="M58.3295 18.4599C61.2163 18.4612 64.011 19.4758 66.2263 21.3267C68.4416 23.1776 69.9369 25.7474 70.4515 28.5879C70.783 26.808 70.7185 24.977 70.2626 23.2249C69.8067 21.4727 68.9704 19.8425 67.8134 18.45C66.6563 17.0575 65.2068 15.9369 63.5678 15.1678C61.9288 14.3987 60.1405 14 58.33 14C56.5195 14 54.7312 14.3987 53.0922 15.1678C51.4532 15.9369 50.0037 17.0575 48.8466 18.45C47.6896 19.8425 46.8533 21.4727 46.3974 23.2249C45.9415 24.977 45.877 26.808 46.2085 28.5879C46.7229 25.7475 48.218 23.1777 50.4331 21.3268C52.6483 19.4759 55.4429 18.4613 58.3295 18.4599Z" fill="#FFF48C"/>
<path d="M46.0005 26.3859C46.0005 28.005 46.3194 29.6082 46.939 31.104C47.5586 32.5998 48.4667 33.959 49.6116 35.1038C50.7564 36.2487 52.1156 37.1568 53.6114 37.7764C55.1072 38.396 56.7104 38.7149 58.3295 38.7149C59.9486 38.7149 61.5518 38.396 63.0476 37.7764C64.5434 37.1568 65.9026 36.2487 67.0474 35.1038C68.1923 33.959 69.1004 32.5998 69.72 31.104C70.3396 29.6082 70.6585 28.005 70.6585 26.3859C70.6585 24.7668 70.3396 23.1636 69.72 21.6678C69.1004 20.172 68.1923 18.8128 67.0474 17.668C65.9026 16.5231 64.5434 15.615 63.0476 14.9954C61.5518 14.3758 59.9486 14.0569 58.3295 14.0569C56.7104 14.0569 55.1072 14.3758 53.6114 14.9954C52.1156 15.615 50.7564 16.5231 49.6116 17.668C48.4667 18.8128 47.5586 20.172 46.939 21.6678C46.3194 23.1636 46.0005 24.7668 46.0005 26.3859Z" stroke="#45413C" stroke-linecap="round" stroke-linejoin="round"/>
<path d="M62.8417 31.8499C63.2261 30.249 63.1132 28.566 62.5186 27.0332C61.924 25.5005 60.8771 24.1937 59.5223 23.2932C58.1676 22.3928 56.572 21.9432 54.9557 22.0065C53.3395 22.0697 51.7824 22.6428 50.4995 23.6465C48.4202 21.149 45.6385 19.3622 42.5304 18.5278C39.4223 17.6933 36.1378 17.8514 33.1207 18.9806C30.1036 20.1098 27.4996 22.1557 25.6605 24.8417C23.8214 27.5278 22.8359 30.7244 22.8374 33.9996V34.1018C22.5111 34.0458 22.1817 34.0117 21.8511 33.9996C19.7689 33.9996 17.7719 34.8425 16.2995 36.3428C14.8272 37.8431 14 39.878 14 41.9998C14 44.1216 14.8272 46.1564 16.2995 47.6568C17.7719 49.1571 19.7689 50 21.8511 50H57.1782C59.262 50.0049 61.2931 49.3328 62.9765 48.0813C64.6599 46.8298 65.9079 45.064 66.5393 43.0405C67.1707 41.0169 67.1527 38.841 66.4877 36.8286C65.8228 34.8162 64.5456 33.0722 62.8417 31.8499Z" fill="#DAEDF7"/>
<path d="M63.3546 47.2048C64.5349 46.2536 65.4781 45.0415 66.1098 43.6639C66.7415 42.2863 67.0444 40.781 66.9947 39.2664C66.945 37.7519 66.5441 36.2696 65.8234 34.9363C65.1028 33.6031 64.0821 32.4553 62.842 31.5835C63.2263 30.0134 63.1134 28.3627 62.5188 26.8594C61.9243 25.3562 60.8774 24.0745 59.5227 23.1914C58.168 22.3083 56.5724 21.8673 54.9563 21.9294C53.3401 21.9914 51.783 22.5535 50.5002 23.5379C48.4209 21.0884 45.6393 19.336 42.5313 18.5176C39.4234 17.6992 36.1389 17.8542 33.122 18.9617C30.105 20.0692 27.501 22.0757 25.6619 24.7101C23.8229 27.3445 22.8375 30.4796 22.8389 33.6918V33.792C22.5127 33.7372 22.1833 33.7037 21.8527 33.6918C20.1779 33.6916 18.5469 34.2267 17.198 35.2188C15.849 36.2109 14.8529 37.6081 14.355 39.2063C13.8571 40.8045 13.8836 42.5199 14.4305 44.102C14.9775 45.6841 16.0163 47.0499 17.3952 48C16.9081 46.7424 16.7628 45.3783 16.9742 44.0464C17.1856 42.7145 17.746 41.4622 18.5985 40.4169C19.4511 39.3716 20.5653 38.5706 21.828 38.0951C23.0907 37.6197 24.4569 37.4869 25.7876 37.7102C25.7876 37.6768 25.782 37.6445 25.782 37.6111C25.782 23.3997 42.773 17.8511 49.3356 27.8035C55.0892 23.4376 61.4189 29.1143 59.8989 35.5016C61.1819 36.4039 62.2292 37.601 62.9525 38.9923C63.6759 40.3836 64.0542 41.9282 64.0555 43.496C64.0612 44.7657 63.8233 46.0247 63.3546 47.2048Z" fill="white"/>
<path d="M62.8417 31.8499C63.2261 30.249 63.1132 28.566 62.5186 27.0332C61.924 25.5005 60.8771 24.1937 59.5223 23.2932C58.1676 22.3928 56.572 21.9432 54.9557 22.0065C53.3395 22.0697 51.7824 22.6428 50.4995 23.6465C48.4202 21.149 45.6385 19.3622 42.5304 18.5278C39.4223 17.6933 36.1378 17.8514 33.1207 18.9806C30.1036 20.1098 27.4996 22.1557 25.6605 24.8417C23.8214 27.5278 22.8359 30.7244 22.8374 33.9996V34.1018C22.5111 34.0458 22.1817 34.0117 21.8511 33.9996C19.7689 33.9996 17.7719 34.8425 16.2995 36.3428C14.8272 37.8431 14 39.878 14 41.9998C14 44.1216 14.8272 46.1564 16.2995 47.6568C17.7719 49.1571 19.7689 50 21.8511 50H57.1782C59.262 50.0049 61.2931 49.3328 62.9765 48.0813C64.6599 46.8298 65.9079 45.064 66.5393 43.0405C67.1707 41.0169 67.1527 38.841 66.4877 36.8286C65.8228 34.8162 64.5456 33.0722 62.8417 31.8499Z" stroke="#45413C" stroke-linecap="round" stroke-linejoin="round"/>
<path d="M53.4288 57.2377C53.1224 57.5344 52.7069 57.701 52.2738 57.701C51.8407 57.701 51.4253 57.5344 51.1188 57.2377C50.89 57.016 50.7344 56.7333 50.6716 56.4257C50.6088 56.118 50.6418 55.7992 50.7663 55.5097L52.2738 52L53.7814 55.5097C53.9059 55.7992 53.9388 56.118 53.876 56.4257C53.8133 56.7333 53.6576 57.016 53.4288 57.2377ZM41.4837 57.2377C41.1773 57.5343 40.762 57.7009 40.329 57.7009C39.896 57.7009 39.4807 57.5343 39.1743 57.2377C38.9455 57.0159 38.7899 56.7333 38.727 56.4257C38.6641 56.1181 38.6969 55.7993 38.8211 55.5097L40.3293 52L41.8368 55.5097C41.9613 55.7993 41.9942 56.1181 41.9313 56.4258C41.8685 56.7335 41.7127 57.0161 41.4837 57.2377ZM29.5392 57.2377C29.2328 57.5343 28.8175 57.7009 28.3845 57.7009C27.9514 57.7009 27.5361 57.5343 27.2298 57.2377C27.001 57.0159 26.8453 56.7333 26.7825 56.4257C26.7196 56.1181 26.7524 55.7993 26.8766 55.5097L28.3842 52L29.8923 55.5097C30.0166 55.7993 30.0493 56.1181 29.9865 56.4257C29.9236 56.7333 29.7679 57.0159 29.5392 57.2377ZM59.5213 63.5363C59.3696 63.6833 59.1895 63.7999 58.9914 63.8795C58.7932 63.959 58.5808 64 58.3663 64C58.1518 64 57.9393 63.959 57.7412 63.8795C57.543 63.7999 57.3629 63.6833 57.2113 63.5363C56.9825 63.3146 56.8269 63.0321 56.7641 62.7245C56.7014 62.417 56.7343 62.0983 56.8587 61.8089L58.3663 58.298L59.8744 61.8077C59.9989 62.0973 60.0318 62.4162 59.9689 62.724C59.906 63.0318 59.7502 63.3145 59.5213 63.5363ZM47.5767 63.5363C47.4251 63.6833 47.245 63.7999 47.0468 63.8795C46.8487 63.959 46.6363 64 46.4217 64C46.2072 64 45.9948 63.959 45.7966 63.8795C45.5985 63.7999 45.4184 63.6833 45.2667 63.5363C45.038 63.3146 44.8824 63.0321 44.8196 62.7245C44.7568 62.417 44.7898 62.0983 44.9142 61.8089L46.4217 58.298L47.9293 61.8077C48.054 62.0972 48.0871 62.4162 48.0243 62.724C47.9615 63.0317 47.8057 63.3145 47.5767 63.5363ZM35.6316 63.5363C35.48 63.6833 35.3 63.7999 35.1019 63.8794C34.9037 63.959 34.6914 63.9999 34.4769 63.9999C34.2625 63.9999 34.0501 63.959 33.852 63.8794C33.6538 63.7999 33.4738 63.6833 33.3222 63.5363C33.0935 63.3146 32.9379 63.0321 32.875 62.7246C32.8121 62.417 32.8449 62.0984 32.9691 61.8089L34.4785 58.298L35.986 61.8077C36.1105 62.0974 36.1432 62.4164 36.0801 62.7242C36.017 63.032 35.8609 63.3147 35.6316 63.5363ZM23.7882 63.5363C23.6365 63.6833 23.4564 63.7999 23.2583 63.8795C23.0601 63.959 22.8477 64 22.6332 64C22.4187 64 22.2062 63.959 22.0081 63.8795C21.8099 63.7999 21.6298 63.6833 21.4782 63.5363C21.2494 63.3146 21.0938 63.0321 21.031 62.7245C20.9683 62.417 21.0012 62.0983 21.1256 61.8089L22.6332 58.298L24.1413 61.8077C24.2658 62.0973 24.2987 62.4162 24.2358 62.724C24.1729 63.0318 24.0171 63.3145 23.7882 63.5363Z" fill="#D9FDFF" stroke="#45413C" stroke-linecap="round" stroke-linejoin="round"/>
</svg>

<svg xmlns="http://www.w3.org/2000/svg" width="82" height="82" fill="none" viewBox="0 0 82 82"><path fill="#b8ecff" stroke="#b8ecff" stroke-miterlimit="10" d="M1 41a40 40 0 1 0 80 0 40 40 0 0 0-80 0Z"/><path fill="#ffe500" d="M46 26.386a12.329 12.329 0 1 0 24.658 0 12.329 12.329 0 0 0-24.657 0"/><path fill="#fff48c" d="M58.33 18.46A12.325 12.325 0 0 1 70.45 28.588a12.331 12.331 0 1 0-24.242 0 12.324 12.324 0 0 1 12.12-10.128"/><path stroke="#45413c" stroke-linecap="round" stroke-linejoin="round" d="M46 26.386a12.329 12.329 0 1 0 24.658 0 12.329 12.329 0 0 0-24.657 0"/><path fill="#daedf7" d="M62.842 31.85a8.1 8.1 0 0 0-.323-4.817 7.93 7.93 0 0 0-2.997-3.74 7.7 7.7 0 0 0-4.566-1.287 7.72 7.72 0 0 0-4.457 1.64 15.66 15.66 0 0 0-7.969-5.118 15.4 15.4 0 0 0-9.41.453 15.74 15.74 0 0 0-7.46 5.86A16.2 16.2 0 0 0 22.838 34v.102a7.4 7.4 0 0 0-.986-.102c-2.082 0-4.08.843-5.552 2.343A8.08 8.08 0 0 0 14 42c0 2.122.827 4.156 2.3 5.657A7.78 7.78 0 0 0 21.85 50h35.327a9.68 9.68 0 0 0 5.799-1.919 9.98 9.98 0 0 0 3.562-5.04c.632-2.024.614-4.2-.051-6.212a9.97 9.97 0 0 0-3.646-4.98"/><path fill="#fff" d="M63.355 47.205a9.79 9.79 0 0 0 3.64-7.939 9.78 9.78 0 0 0-4.153-7.682 7.8 7.8 0 0 0-3.32-8.393 7.81 7.81 0 0 0-9.022.347 15.695 15.695 0 0 0-17.378-4.576 15.68 15.68 0 0 0-10.283 14.73v.1a8 8 0 0 0-.986-.1 7.855 7.855 0 0 0-7.498 5.514A7.84 7.84 0 0 0 17.395 48a7.633 7.633 0 0 1 4.433-9.905 7.65 7.65 0 0 1 3.96-.385c0-.033-.006-.066-.006-.099 0-14.211 16.991-19.76 23.554-9.807 5.753-4.366 12.083 1.31 10.563 7.698a9.79 9.79 0 0 1 4.156 7.994 9.9 9.9 0 0 1-.7 3.709"/><path stroke="#45413c" stroke-linecap="round" stroke-linejoin="round" d="M62.842 31.85a8.1 8.1 0 0 0-.323-4.817 7.93 7.93 0 0 0-2.997-3.74 7.7 7.7 0 0 0-4.566-1.287 7.72 7.72 0 0 0-4.457 1.64 15.66 15.66 0 0 0-7.969-5.118 15.4 15.4 0 0 0-9.41.453 15.74 15.74 0 0 0-7.46 5.86A16.2 16.2 0 0 0 22.838 34v.102a7.4 7.4 0 0 0-.986-.102c-2.082 0-4.08.843-5.552 2.343A8.08 8.08 0 0 0 14 42c0 2.122.827 4.156 2.3 5.657A7.78 7.78 0 0 0 21.85 50h35.327a9.68 9.68 0 0 0 5.799-1.919 9.98 9.98 0 0 0 3.562-5.04c.632-2.024.614-4.2-.051-6.212a9.97 9.97 0 0 0-3.646-4.98"/><path fill="#d9fdff" stroke="#45413c" stroke-linecap="round" stroke-linejoin="round" d="M53.429 57.238a1.66 1.66 0 0 1-1.155.463c-.433 0-.849-.167-1.155-.463a1.57 1.57 0 0 1-.447-.812 1.54 1.54 0 0 1 .094-.916L52.274 52l1.507 3.51c.125.29.158.608.095.916-.063.307-.218.59-.447.812m-11.945 0a1.66 1.66 0 0 1-1.155.463 1.66 1.66 0 0 1-1.155-.463 1.57 1.57 0 0 1-.447-.812 1.54 1.54 0 0 1 .094-.916L40.33 52l1.508 3.51c.124.29.157.608.094.916-.062.307-.218.59-.447.812m-11.945 0a1.66 1.66 0 0 1-1.155.463 1.66 1.66 0 0 1-1.154-.463 1.57 1.57 0 0 1-.448-.812 1.54 1.54 0 0 1 .095-.916L28.384 52l1.508 3.51c.125.29.157.608.095.916a1.57 1.57 0 0 1-.448.812m29.982 6.298a1.6 1.6 0 0 1-.53.343 1.68 1.68 0 0 1-1.78-.343 1.57 1.57 0 0 1-.447-.812 1.54 1.54 0 0 1 .095-.915l1.507-3.511 1.508 3.51c.125.29.158.608.095.916a1.57 1.57 0 0 1-.448.812m-11.944 0a1.6 1.6 0 0 1-.53.343 1.68 1.68 0 0 1-1.78-.343 1.57 1.57 0 0 1-.447-.812 1.54 1.54 0 0 1 .094-.915l1.508-3.511 1.507 3.51c.125.29.158.608.095.916-.062.308-.218.59-.447.812m-11.945 0a1.6 1.6 0 0 1-.53.343 1.68 1.68 0 0 1-1.78-.343 1.57 1.57 0 0 1-.447-.811 1.54 1.54 0 0 1 .094-.916l1.51-3.511 1.507 3.51c.125.29.157.608.094.916s-.22.59-.448.812m-11.844 0a1.6 1.6 0 0 1-.53.343 1.68 1.68 0 0 1-1.78-.343 1.57 1.57 0 0 1-.447-.812 1.54 1.54 0 0 1 .095-.915l1.507-3.511 1.508 3.51c.125.29.158.608.095.916a1.57 1.57 0 0 1-.448.812"/></svg>
